public/images/logos/tailwindcss.svg

<svg fill="none" height="64" viewBox="0 0 64 64" width="64" xmlns="http://www.w3.org/2000/svg" xmlns:xlink="http://www.w3.org/1999/xlink"><clipPath id="a"><path d="m0 0h64v64h-64z"/></clipPath><g clip-path="url(#a)"><path d="m64 0h-64v64h64z" fill="#fff"/><path clip-rule="evenodd" d="m32.0004 18c-5.8672 0-9.5332 3.0002-11.0006 9.0006 2.2003-3.0002 4.767-4.1251 7.7002-3.3755 1.6735.4276 2.8702 1.6696 4.1937 3.0446 2.1571 2.2391 4.654 4.8303 10.1065 4.8303 5.8663 0 9.5332-3.0002 10.9998-8.9997-2.1994 3.0002-4.7662 4.125-7.6993 3.3746-1.6744-.4276-2.8711-1.6696-4.1946-3.0437-2.1572-2.2408-4.6532-4.8312-10.1057-4.8312zm-11.0006 13.5c-5.8663 0-9.5332 3.0002-10.9998 9.0006 2.2003-3.0002 4.767-4.1251 7.6993-3.3755 1.6744.4276 2.8711 1.6696 4.1946 3.0446 2.1572 2.2391 4.6532 4.8303 10.1065 4.8303 5.8664 0 9.5332-2.9993 10.9998-8.9997-2.2003 3.0002-4.767 4.125-7.7002 3.3754-1.6735-.4284-2.8702-1.6704-4.1937-3.0445-2.1572-2.2391-4.654-4.8312-10.1065-4.8312z" fill="#38bdf8" fill-rule="evenodd"/></g></svg>

<svg width="64" height="64" viewBox="0 0 64 64" fill="none" xmlns="http://www.w3.org/2000/svg">
<g clip-path="url(#clip0_555_6624)">
<path d="M64 0H0V64H64V0Z" fill="white"/>
<path fill-rule="evenodd" clip-rule="evenodd" d="M32.0004 18C26.1332 18 22.4672 21.0002 20.9998 27.0006C23.2001 24.0004 25.7668 22.8755 28.7 23.6251C30.3735 24.0527 31.5702 25.2947 32.8937 26.6697C35.0508 28.9088 37.5477 31.5 43.0002 31.5C48.8665 31.5 52.5334 28.4998 54 22.5003C51.8006 25.5005 49.2338 26.6253 46.3007 25.8749C44.6263 25.4473 43.4296 24.2053 42.1061 22.8312C39.9489 20.5904 37.4529 18 32.0004 18ZM20.9998 31.5C15.1335 31.5 11.4666 34.5002 10 40.5006C12.2003 37.5004 14.767 36.3755 17.6993 37.1251C19.3737 37.5527 20.5704 38.7947 21.8939 40.1697C24.0511 42.4088 26.5471 45 32.0004 45C37.8668 45 41.5336 42.0007 43.0002 36.0003C40.7999 39.0005 38.2332 40.1253 35.3 39.3757C33.6265 38.9473 32.4298 37.7053 31.1063 36.3312C28.9491 34.0921 26.4523 31.5 20.9998 31.5Z" fill="#38BDF8"/>
</g>
<defs>
<clipPath id="clip0_555_6624">
<rect width="64" height="64" fill="white"/>
</clipPath>
</defs>
</svg>
